parr/data/parr.cube
TITLE "parr"
LUT_3D_SIZE 9
DOMAIN_MIN 0.0 0.0 0.0
DOMAIN_MAX 1.0 1.0 1.0
0.000000 0.000000 0.000000
0.063803 0.000000 0.000000
0.148105 0.000000 0.000000
0.270796 0.000000 0.000000
0.416780 0.000000 0.000000
0.580669 0.000008 0.000004
0.754698 0.000010 0.000005
0.930238 0.000037 0.000020
0.999998 0.315557 0.251034
0.000000 0.069139 0.000000
0.071789 0.071788 0.000000
0.166076 0.075462 0.000000
0.288510 0.088785 0.000000
0.432545 0.103114 0.000000
0.593578 0.116675 0.000000
0.764363 0.128218 0.000004
0.936660 0.136936 0.000002
0.999998 0.352265 0.264134
0.000000 0.182047 0.000000
0.087677 0.186767 0.000000
0.197379 0.197379 0.000000
0.322581 0.212817 0.000000
0.464640 0.230565 0.000000
0.620683 0.248061 0.000000
0.784916 0.263227 0.000000
0.950203 0.274667 0.000007
0.999995 0.428280 0.295211
0.000000 0.336705 0.000000
0.110513 0.340391 0.000000
0.231562 0.349007 0.000000
0.362136 0.362136 0.000000
0.503645 0.377824 0.000000
0.654493 0.393649 0.000000
0.810590 0.407367 0.000009
0.966462 0.417295 0.000015
0.999997 0.529304 0.343694
0.000004 0.509993 0.000004
0.129024 0.512387 0.000004
0.259923 0.518052 0.000005
0.395775 0.526813 0.000003
0.537345 0.537346 0.000008
0.683560 0.547795 0.000000
0.831630 0.556282 0.000016
0.977694 0.561290 0.000017
0.999996 0.638706 0.403345
0.000023 0.683124 0.000019
0.140703 0.684274 0.000015
0.277802 0.686972 0.000016
0.416760 0.691033 0.000012
0.557622 0.695598 0.000013
0.699426 0.699426 0.000020
0.840216 0.701209 0.000029
0.977390 0.699867 0.000012
0.999999 0.745180 0.465315
0.000013 0.839697 0.000010
0.145116 0.839846 0.000025
0.284153 0.840116 0.000026
0.423201 0.840228 0.000024
0.561793 0.839621 0.000031
0.698960 0.837553 0.000034
0.833267 0.833267 0.000014
0.963001 0.826173 0.000000
0.999998 0.842346 0.520088
0.000016 0.970304 0.000012
0.143368 0.969787 0.000047
0.280657 0.968430 0.000038
0.417020 0.965875 0.000021
0.551768 0.961747 0.000000
0.683976 0.955654 0.000037
0.812557 0.947269 0.000045
0.936418 0.936419 0.000049
0.999999 0.928733 0.556876
0.615906 0.999998 0.585728
0.625118 0.999998 0.587015
0.647574 0.999998 0.590261
0.684528 1.000000 0.595950
0.734125 1.000000 0.604409
0.793172 0.999999 0.616064
0.858204 1.000000 0.632200
0.925677 1.000000 0.657382
0.989368 1.000000 0.711987
0.000000 0.000645 0.056350
0.065304 0.000000 0.065305
0.151085 0.000000 0.066618
0.273573 0.000000 0.082539
0.419195 0.000000 0.098789
0.582619 0.000006 0.113784
0.756150 0.000010 0.126379
0.931202 0.000019 0.135887
0.999998 0.316728 0.290153
0.000000 0.070132 0.070132
0.079038 0.079038 0.079038
0.210076 0.037051 0.053082
0.338671 0.000000 0.041551
0.472915 0.000000 0.053619
0.627163 0.000006 0.064582
0.792771 0.000021 0.073718
0.960855 0.000030 0.080593
0.999999 0.353247 0.301338
0.000000 0.183740 0.085893
0.037051 0.194339 0.046057
0.195321 0.193364 0.037051
0.354605 0.198028 0.000000
0.504423 0.198825 0.000001
0.661355 0.202107 0.000001
0.823571 0.205985 0.000009
0.985653 0.208890 0.000014
0.999997 0.428958 0.328324
0.000000 0.338009 0.109515
0.000002 0.352003 0.026417
0.209595 0.358206 0.000000
0.367285 0.364479 0.000001
0.521483 0.372244 0.000000
0.678410 0.380216 0.000007
0.836804 0.386901 0.000013
0.992753 0.390981 0.000015
0.999995 0.529697 0.371482
0.000000 0.510837 0.128513
0.000017 0.521297 0.035403
0.223406 0.526793 0.000005
0.386280 0.532395 0.000003
0.541095 0.538891 0.000008
0.694856 0.544893 0.000018
0.847139 0.548972 0.000016
0.995230 0.549962 0.000017
0.999996 0.638859 0.425847
0.000020 0.683529 0.140504
0.000035 0.691156 0.041787
0.233079 0.694340 0.000017
0.398803 0.696755 0.000013
0.552595 0.699112 0.000013
0.702092 0.700353 0.000029
0.847690 0.699395 0.000029
0.987774 0.695373 0.000053
0.999997 0.745150 0.483397
0.000056 0.839751 0.145085
0.000056 0.845142 0.044363
0.235222 0.846074 0.000026
0.400472 0.845261 0.000037
0.551434 0.843381 0.000031
0.696005 0.839764 0.000034
0.835135 0.833762 0.000034
0.968066 0.824906 0.000046
0.999999 0.842184 0.534903
0.000043 0.970125 0.143425
0.000107 0.973858 0.043847
0.230300 0.973170 0.000051
0.391913 0.970071 0.000036
0.538355 0.965183 0.000046
0.677522 0.958141 0.000055
0.810708 0.948671 0.000045
0.937751 0.936664 0.000049
0.999998 0.928484 0.569777
0.615860 0.999999 0.595831
0.625069 0.999999 0.597052
0.647511 1.000000 0.600126
0.684466 1.000000 0.605533
0.734060 0.999999 0.613550
0.793120 0.999999 0.624583
0.858206 0.999999 0.639862
0.925805 1.000000 0.663769
0.989770 1.000000 0.716281
0.000000 0.005667 0.110451
0.059086 0.000000 0.138323
0.158057 0.000000 0.158058
0.280352 0.000000 0.182865
0.425161 0.000000 0.208872
0.587477 0.000000 0.233169
0.759776 0.000000 0.253702
0.933609 0.000000 0.269220
0.999994 0.320030 0.367054
0.000000 0.066647 0.151144
0.075724 0.040640 0.230592
0.201886 0.037051 0.205003
0.339579 0.000000 0.201302
0.476694 0.000000 0.208554
0.630975 0.000004 0.223424
0.795811 0.000002 0.238376
0.962901 0.000017 0.250348
0.999998 0.356029 0.375589
0.000000 0.187916 0.187916
0.037051 0.194057 0.194833
0.185000 0.185000 0.185000
0.372081 0.169204 0.177478
0.567464 0.114628 0.161836
0.724138 0.065088 0.159373
0.882068 0.000008 0.160409
0.999995 0.176484 0.219452
0.999995 0.430921 0.396559
0.000000 0.341264 0.226071
0.000002 0.354209 0.212653
0.143662 0.356518 0.155984
0.355372 0.351034 0.106162
0.581366 0.345490 0.000005
0.752396 0.325194 0.013895
0.908222 0.314404 0.053211
0.999998 0.384220 0.228227
0.999998 0.530862 0.431053
0.000000 0.512944 0.257112
0.000004 0.523013 0.232854
0.000007 0.549135 0.092833
0.346007 0.549701 0.000003
0.550285 0.542915 0.000008
0.727510 0.534682 0.000018
0.891499 0.525048 0.000016
0.999999 0.546961 0.229350
0.999999 0.639373 0.475932
0.000020 0.684537 0.276707
0.000028 0.691979 0.247025
0.000035 0.711027 0.104476
0.333713 0.713312 0.000016
0.535338 0.709115 0.000017
0.708686 0.702754 0.000029
0.868110 0.693838 0.000029
0.999998 0.689638 0.176246
0.999999 0.745164 0.524834
0.000012 0.839879 0.284055
0.000030 0.845172 0.251823
0.000052 0.858656 0.109592
0.322580 0.859252 0.000048
0.519430 0.853788 0.000032
0.686806 0.845831 0.000034
0.839784 0.835048 0.000034
0.981548 0.821304 0.000046
0.999999 0.841839 0.569570
0.000060 0.969665 0.281062
0.000060 0.973349 0.248123
0.000104 0.982718 0.109263
0.308227 0.981465 0.000036
0.498345 0.974494 0.000046
0.658911 0.964865 0.000065
0.805264 0.952447 0.000045
0.941081 0.937303 0.000049
1.000000 0.927899 0.600333
0.615833 0.999998 0.620374
0.625021 0.999999 0.621443
0.647439 0.999999 0.624148
0.684348 1.000000 0.628881
0.733921 0.999999 0.635897
0.793001 1.000000 0.645518
0.858206 0.999999 0.658840
0.926103 1.000000 0.679778
0.990741 1.000000 0.727264
0.000000 0.008063 0.198822
0.067291 0.000000 0.237146
0.168764 0.000000 0.260474
0.291347 0.000000 0.291347
0.435121 0.000000 0.324733
0.595689 0.000000 0.356464
0.765930 0.000011 0.383512
0.937684 0.000011 0.403986
0.999998 0.326668 0.465266
0.000000 0.073351 0.251669
0.079802 0.000000 0.352101
0.204697 0.000000 0.348063
0.337866 0.000000 0.342107
0.480907 0.000000 0.349124
0.636373 0.000004 0.365382
0.800447 0.000011 0.383231
0.966089 0.000023 0.398018
0.999995 0.361708 0.471607
0.000000 0.194841 0.297238
0.000000 0.196303 0.359669
0.193466 0.180829 0.380189
0.363005 0.168133 0.366143
0.561023 0.119415 0.375655
0.722388 0.075523 0.367037
0.883707 0.000011 0.365907
0.999997 0.182363 0.389183
0.999997 0.435018 0.487288
0.000000 0.346798 0.346798
0.000000 0.357213 0.358281
0.086724 0.357496 0.359481
0.329038 0.329038 0.329038
0.551034 0.331615 0.335847
0.759016 0.319014 0.338572
0.912735 0.309691 0.340732
0.999998 0.385913 0.394950
1.000000 0.533416 0.513459
0.000010 0.516547 0.387821
0.000010 0.525709 0.383149
0.000022 0.549297 0.357782
0.315835 0.532237 0.321015
0.528512 0.525206 0.293699
0.763675 0.519892 0.248614
0.930054 0.499889 0.265278
0.999997 0.547122 0.395573
0.999997 0.640659 0.548214
0.000011 0.686247 0.413731
0.000033 0.693282 0.401508
0.000034 0.711288 0.357750
0.279895 0.722841 0.301134
0.510051 0.719674 0.255371
0.715165 0.706093 0.189041
0.902986 0.682097 0.136974
0.999997 0.688808 0.367546
0.999997 0.745466 0.586925
0.000000 0.840057 0.423104
0.000051 0.845145 0.407139
0.000055 0.858123 0.355442
0.231782 0.869756 0.270499
0.478919 0.864170 0.242040
0.668346 0.855211 0.164548
0.847740 0.837409 0.000051
0.999998 0.815429 0.165920
0.999999 0.841434 0.623043
0.000049 0.968823 0.418389
0.000049 0.972400 0.400771
0.000049 0.981510 0.346242
0.000049 0.997852 0.169755
0.405179 0.991520 0.089232
0.617271 0.977934 0.044077
0.792365 0.960054 0.000055
0.946822 0.938492 0.000049
0.999999 0.927023 0.648343
0.615989 0.999999 0.660524
0.625146 0.999999 0.661386
0.647489 0.999999 0.663561
0.684294 0.999999 0.667347
0.733781 0.999999 0.672929
0.792850 0.999999 0.680528
0.858192 1.000000 0.690963
0.926541 1.000000 0.707464
0.992300 1.000000 0.746972
0.000000 0.018422 0.302290
0.076895 0.000000 0.351679
0.182110 0.000000 0.376465
0.305746 0.000000 0.410616
0.448577 0.000000 0.448577
0.606986 0.000000 0.485297
0.774473 0.000006 0.516873
0.943332 0.000000 0.540779
0.999997 0.337747 0.571385
0.000000 0.081686 0.366573
0.087879 0.000000 0.449463
0.206315 0.000000 0.461609
0.339725 0.000000 0.474285
0.486079 0.000000 0.489415
0.642871 0.000004 0.508386
0.806202 0.000015 0.527856
0.970069 0.000029 0.543801
0.999997 0.371294 0.576053
0.000000 0.204134 0.416542
0.000000 0.170837 0.541104
0.211448 0.149367 0.579535
0.382300 0.139961 0.572232
0.550123 0.121068 0.558017
0.715180 0.092261 0.548196
0.883069 0.000015 0.545322
0.999996 0.188131 0.546544
0.999999 0.442122 0.587616
0.000000 0.354472 0.473505
0.000000 0.360291 0.504556
0.074936 0.363671 0.602352
0.348620 0.341722 0.556693
0.540067 0.332091 0.542381
0.750071 0.321206 0.554160
0.908669 0.311813 0.541043
0.999996 0.387500 0.550021
0.999997 0.538050 0.606998
0.000005 0.521595 0.521595
0.000009 0.529128 0.529959
0.000009 0.547695 0.550613
0.279086 0.534413 0.536257
0.500000 0.500000 0.500000
0.727125 0.503714 0.506570
0.936014 0.491443 0.504083
0.999998 0.546830 0.549504
0.999998 0.643220 0.632922
0.000024 0.688606 0.551915
0.000024 0.694918 0.549940
0.000024 0.710955 0.540632
0.187956 0.731206 0.512190
0.485660 0.701423 0.489121
0.693346 0.690577 0.461752
0.919382 0.672960 0.410790
0.999997 0.687083 0.529333
0.999998 0.746417 0.662092
0.000027 0.840210 0.562198
0.000027 0.844946 0.554951
0.000027 0.856998 0.532201
0.150899 0.873709 0.482765
0.439812 0.870477 0.453996
0.649458 0.860176 0.408879
0.846483 0.838020 0.353349
0.999999 0.812967 0.420847
0.999999 0.841224 0.689620
0.000031 0.967508 0.555211
0.000055 0.970902 0.545336
0.000055 0.979543 0.516397
0.000072 0.995066 0.445884
0.397773 0.989601 0.420669
0.606883 0.977629 0.398406
0.782439 0.961629 0.356070
0.946718 0.938285 0.312606
0.999999 0.926039 0.709244
0.616666 1.000000 0.714117
0.625752 1.000000 0.714754
0.647931 1.000000 0.716350
0.684523 0.999999 0.719121
0.733784 1.000000 0.723139
0.792729 1.000000 0.728517
0.858158 1.000000 0.735763
0.927016 1.000000 0.747171
0.994275 1.000000 0.776728
0.000000 0.044716 0.420712
0.087182 0.000000 0.482133
0.196970 0.000000 0.506770
0.322374 0.000001 0.541778
0.464556 0.000000 0.581574
0.620636 0.000001 0.620636
0.784870 0.000000 0.654456
0.950155 0.000020 0.679953
0.999997 0.353910 0.679037
0.000000 0.090930 0.496549
0.097107 0.000000 0.567159
0.214748 0.000001 0.584669
0.347287 0.000003 0.606942
0.493824 0.000005 0.630289
0.650594 0.000007 0.653333
0.812715 0.000013 0.674218
0.974416 0.000025 0.690269
1.000000 0.385448 0.682359
0.000000 0.215102 0.547209
0.044890 0.108006 0.724698
0.224618 0.117377 0.724150
0.382223 0.118411 0.725351
0.546283 0.103766 0.725459
0.717606 0.038010 0.726709
0.879834 0.000013 0.718093
0.999997 0.192712 0.700675
0.999997 0.452890 0.690594
0.000000 0.363840 0.607354
0.000005 0.362262 0.657230
0.155067 0.346503 0.760423
0.372557 0.342671 0.766583
0.559894 0.335358 0.758408
0.734697 0.326984 0.740792
0.897479 0.319204 0.724271
0.999997 0.388382 0.701976
0.999998 0.545320 0.704420
0.000007 0.527814 0.659077
0.000007 0.532844 0.678372
0.000018 0.543048 0.735473
0.285038 0.543811 0.787145
0.519916 0.515219 0.733415
0.713713 0.503650 0.715578
0.923112 0.491074 0.720789
0.999997 0.545557 0.700361
0.999998 0.647527 0.722946
0.000035 0.691439 0.691439
0.000035 0.696641 0.697302
0.000035 0.709531 0.711855
0.005191 0.731268 0.736466
0.455003 0.702267 0.703811
0.670962 0.670962 0.670962
0.876597 0.663453 0.665712
0.999997 0.683819 0.685303
0.999997 0.748397 0.743837
0.000000 0.840216 0.701207
0.000056 0.844401 0.700134
0.000056 0.854992 0.695664
0.000056 0.873834 0.679762
0.372683 0.876507 0.656098
0.639269 0.842367 0.642065
0.829373 0.826862 0.611591
0.999999 0.808132 0.612434
0.999999 0.841512 0.763615
0.000072 0.965615 0.691259
0.000072 0.968725 0.686531
0.000072 0.976634 0.672674
0.000087 0.990796 0.639951
0.349208 0.991570 0.610847
0.571483 0.981873 0.581769
0.763327 0.964662 0.541788
0.943897 0.937216 0.500270
0.999999 0.925206 0.777950
0.618298 1.000000 0.777788
0.627264 1.000000 0.778225
0.649171 0.999998 0.779314
0.685347 0.999999 0.781167
0.734169 1.000000 0.783792
0.792777 0.999999 0.787181
0.858110 1.000000 0.791520
0.927390 1.000000 0.798148
0.996368 1.000000 0.817260
0.000000 0.049407 0.552819
0.097567 0.000004 0.627315
0.212344 0.000001 0.650612
0.340021 0.000002 0.684515
0.481879 0.000000 0.723718
0.635639 0.000004 0.762594
0.796326 0.000007 0.796326
0.957572 0.000006 0.821474
0.999998 0.375200 0.785289
0.000000 0.100406 0.640736
0.106709 0.000005 0.702070
0.226144 0.000005 0.720738
0.358741 0.000007 0.746446
0.504352 0.000008 0.774181
0.659700 0.000012 0.800233
0.819739 0.000007 0.822036
0.978737 0.000037 0.837427
1.000000 0.404354 0.787467
0.000000 0.226947 0.689169
0.088356 0.000005 0.883944
0.241380 0.000006 0.892556
0.393088 0.000012 0.899634
0.552453 0.000012 0.899543
0.715059 0.000012 0.892723
0.875465 0.000020 0.883562
0.999998 0.195547 0.852915
0.999998 0.467586 0.792877
0.000000 0.374254 0.748608
0.000002 0.361118 0.819069
0.192572 0.335096 0.908348
0.381573 0.336342 0.912362
0.554734 0.334629 0.912782
0.724626 0.329008 0.906924
0.894775 0.308248 0.902151
0.999997 0.387935 0.852554
0.999997 0.555554 0.801994
0.000011 0.534769 0.800427
0.000011 0.536259 0.829840
0.000012 0.533353 0.922326
0.330931 0.528987 0.947178
0.540289 0.520956 0.949571
0.730503 0.508557 0.934412
0.902272 0.495211 0.907472
0.999998 0.542577 0.850668
0.999999 0.653885 0.814227
0.000010 0.694468 0.832237
0.000017 0.698119 0.844845
0.000027 0.706463 0.879489
0.135726 0.714996 0.941927
0.450994 0.706740 0.953280
0.681505 0.677787 0.885332
0.860587 0.661895 0.862233
0.999998 0.677996 0.841582
1.000000 0.751679 0.827992
0.000024 0.839890 0.839890
0.000057 0.843307 0.843836
0.000057 0.851810 0.853670
0.000057 0.866315 0.870498
0.303373 0.873297 0.878071
0.609619 0.841511 0.842903
0.815000 0.815000 0.815000
0.962949 0.806407 0.807045
0.999999 0.842554 0.840980
0.000044 0.963031 0.826200
0.000056 0.965741 0.825451
0.000056 0.972598 0.822745
0.000056 0.984747 0.814590
0.253488 0.993304 0.796770
0.516831 0.984951 0.772361
0.768388 0.946125 0.770481
0.930111 0.928155 0.742028
1.000000 0.924776 0.850516
0.621421 1.000000 0.848050
0.630194 1.000000 0.848335
0.651653 0.999999 0.849036
0.687170 0.999999 0.850204
0.735259 0.999999 0.851793
0.793200 1.000000 0.853698
0.858131 1.000000 0.855885
0.927557 1.000000 0.858831
0.998230 1.000000 0.868572
0.000000 0.103819 0.696420
0.107571 0.000000 0.784950
0.227388 0.000004 0.806051
0.357581 0.000007 0.837322
0.499359 0.000014 0.873923
0.650898 0.000005 0.910418
0.807935 0.000025 0.941930
0.964858 0.000022 0.964858
0.999998 0.401087 0.888756
0.006253 0.103819 0.842992
0.116110 0.000009 0.850902
0.238476 0.000008 0.868711
0.371963 0.000007 0.894267
0.516599 0.000014 0.922698
0.669796 0.000015 0.949355
0.826959 0.000029 0.970765
0.982660 0.000041 0.984602
0.999997 0.427630 0.889937
0.000000 0.238882 0.841129
0.107388 0.048090 0.999989
0.249483 0.082911 0.999991
0.392914 0.117671 0.999993
0.542019 0.147895 0.999994
0.694552 0.173588 0.999995
0.847027 0.194903 0.999995
0.997059 0.207528 0.999995
0.999997 0.486058 0.892905
0.000000 0.384985 0.896596
0.000000 0.353059 0.992727
0.231640 0.355568 0.999995
0.392450 0.363927 0.999994
0.546602 0.373450 0.999996
0.699077 0.382609 0.999995
0.849572 0.389367 0.999997
0.997941 0.389080 0.999997
0.999999 0.568728 0.897954
0.000000 0.541912 0.945234
0.000014 0.538623 0.984609
0.226331 0.538893 0.999995
0.396174 0.542409 0.999996
0.551714 0.546199 0.999996
0.702456 0.548907 0.999996
0.850533 0.548169 0.999997
0.998361 0.538778 0.999998
0.999998 0.662363 0.904754
0.000020 0.697332 0.973922
0.000035 0.698948 0.992697
0.227386 0.699824 0.999996
0.396977 0.700198 0.999996
0.550511 0.699759 0.999997
0.698763 0.697098 0.999997
0.845900 0.689348 0.999997
0.998289 0.669520 0.999999
0.999999 0.756378 0.912368
0.000022 0.839020 0.977842
0.000066 0.841431 0.986175
0.139408 0.844819 0.999998
0.349882 0.843158 0.999997
0.512270 0.839791 0.999997
0.664939 0.833010 0.999998
0.817654 0.816893 0.962948
0.961953 0.797606 0.962949
1.000000 0.844487 0.919451
0.000017 0.959638 0.959638
0.000071 0.961821 0.962246
0.000071 0.967277 0.968771
0.000071 0.976661 0.980026
0.159949 0.986637 0.992046
0.468179 0.978725 0.982763
0.741921 0.943910 0.945034
0.920962 0.920962 0.920962
0.999999 0.923069 0.922907
0.626743 0.999999 0.921682
0.635225 1.000000 0.921873
0.656033 1.000000 0.922339
0.690588 1.000000 0.923099
0.737548 0.999999 0.924083
0.794399 1.000000 0.925159
0.858474 1.000000 0.926169
0.924462 1.000000 0.924199
0.999749 1.000000 0.925717
0.000000 0.138920 0.848642
0.116799 0.000023 0.951933
0.241411 0.000007 0.970289
0.374118 0.000005 0.997835
0.508854 0.117061 0.999994
0.644382 0.197317 0.999994
0.775959 0.270456 0.999994
0.899051 0.342587 0.999996
1.000000 0.430538 0.988903
0.007841 0.138920 0.999988
0.123187 0.043696 0.999990
0.247307 0.093821 0.999993
0.377882 0.145770 0.999993
0.512550 0.198487 0.999997
0.647415 0.253720 0.999999
0.777898 0.312785 0.999998
0.899806 0.375257 0.999996
0.999999 0.454398 0.989234
0.000546 0.250844 0.999992
0.127524 0.256524 0.999993
0.256516 0.269930 0.999992
0.388614 0.291253 1.000000
0.522479 0.319757 0.999997
0.655088 0.355139 0.999997
0.782648 0.397144 0.999995
0.901601 0.444652 0.999997
0.999995 0.507716 0.990097
0.095544 0.413374 0.999997
0.174123 0.416363 0.999999
0.287742 0.423730 0.999997
0.413108 0.436219 0.999994
0.541583 0.454011 0.999996
0.668667 0.477243 0.999998
0.790652 0.505868 0.999997
0.904454 0.539218 0.999997
0.999999 0.584496 0.991651
0.219425 0.563571 0.999994
0.263616 0.565319 1.000000
0.348516 0.569702 0.999996
0.455905 0.577324 0.999999
0.571797 0.588460 0.999999
0.688668 0.603262 0.999997
0.801858 0.621693 0.999997
0.908249 0.643346 0.999998
0.999997 0.672748 0.993795
0.342513 0.700774 0.999997
0.369854 0.701716 0.999998
0.429585 0.704096 0.999997
0.514171 0.708295 0.999997
0.611933 0.714516 1.000000
0.714319 0.722876 1.000000
0.815777 0.733360 0.999999
0.912867 0.745736 0.999999
0.999999 0.762384 0.996159
0.454181 0.820404 0.999996
0.472252 0.820779 1.000000
0.514185 0.821735 1.000000
0.578089 0.823452 0.999998
0.656669 0.826057 1.000000
0.742802 0.829645 0.999998
0.831091 0.834250 0.999998
0.918029 0.839806 0.999998
1.000000 0.847279 0.998217
0.545708 0.920557 0.999999
0.558316 0.920571 0.999998
0.588451 0.920622 0.999998
0.636525 0.920754 0.999999
0.698621 0.921039 0.999999
0.769777 0.921571 0.999998
0.845632 0.922446 0.999998
0.922095 0.922430 0.999999
0.999999 0.923470 0.999763
0.635308 1.000000 0.995590
0.643432 0.999999 0.995744
0.663361 0.999999 0.996121
0.696579 1.000000 0.996737
0.741952 1.000000 0.997532
0.797198 1.000000 0.998402
0.859853 1.000000 0.999202
0.924636 1.000000 0.999884
1.000000 1.000000 1.000000
